X:085 
T:Irish Girl (reel), The 
T:The Daisy Fields
B:CRE3.151 (CailÃÂÃÂÃÂÃÂ­n Gaelach)
F:file ID: cre.3/085irish_g
L:1/8
R:reel
Q:180
M:C
K:D
F3E DFAF|EA, A,2 EA, A,2|F3E DEFA|(3Bcd ec dcBA|
FAFE DFAF|EA, A,2 EA, A,2|F3E DEFA|(3Bcd eg fdd||
e|fddA dfaf|edcd efge|fddA dfaf|(3fga eg fdde|
fddc dfaf|edcd efge|dfaf g2bg|(3fga ec dcBA||

%%%

